svgs/kwgtpro.svg

<svg xmlns="http://www.w3.org/2000/svg" viewBox="0 0 192 192"><path d="M53.295 175.5c-5.597-.876-13.949-7.357-16.065-12.467-2.799-6.756-.867-12.221 6.279-17.761l6.045-4.687h24.05l6.73 5.377 6.73 5.376h31.977c28.991 0 32.219.193 34.567 2.07 5.387 4.305 1.123 10.38-7.285 10.38-3.126 0-4.394.701-5.136 2.839-1.026 2.957-6.492 4.741-10.831 3.537-1.306-.362-3.071-1.982-3.921-3.6-2.273-4.324-6.875-3.252-7.534 1.756-.672 5.113-2.723 6.786-8.318 6.786-4.869 0-7.595-3.073-7.595-8.562 0-2.573-.551-2.756-8.27-2.756-7.499 0-8.524.311-10.999 3.341-5.464 6.69-18.41 10.252-30.424 8.371Zm15.835-11.794c8.295-4.72 2.946-14.632-7.897-14.632-4.976 0-11.455 4.801-11.455 8.489 0 3.688 6.479 8.489 11.455 8.489 2.075 0 5.629-1.056 7.897-2.346Zm-20.917-38.4c-3.038-2.197-3.13-3.773-3.13-53.546 0-42.503.38-51.658 2.222-53.479 1.8-1.78 4.129-2.197 12.279-2.197 16.517 0 15.234-4.675 15.234 55.534v52.428l-3.478 1.762c-5.237 2.652-19.183 2.35-23.127-.502Zm85.479 1.093c-5.365-1.162-11.38-5.017-14.42-9.243-1.341-1.863-2.199-6.51-2.199-11.906v-8.851l-14.867-10.707c-11.411-8.219-14.868-11.414-14.868-13.746 0-2.322 3.508-5.601 14.868-13.896l14.867-10.858.006-9.329c.008-13.088 5.366-18.898 19.564-21.214 9.835-1.604 10.505-.177 9.904 21.087l-.521 18.472-10.789 7.86-10.789 7.861 10.003 7.482c5.501 4.116 10.483 8.358 11.07 9.428 1.731 3.156 1.449 34.134-.333 36.541-1.733 2.342-4.324 2.572-11.496 1.019Z"/></svg>

<svg
    xmlns="http://www.w3.org/2000/svg"
    viewBox="0 0 192 192"
    id="vector">
    <g id="group">
        <path
            id="path_6"
            d="M 53.295 175.5 C 47.698 174.624 39.346 168.143 37.23 163.033 C 34.431 156.277 36.363 150.812 43.509 145.272 L 49.554 140.585 L 73.604 140.585 L 80.334 145.962 L 87.064 151.338 L 119.041 151.338 C 148.032 151.338 151.26 151.531 153.608 153.408 C 158.995 157.713 154.731 163.788 146.323 163.788 C 143.197 163.788 141.929 164.489 141.187 166.627 C 140.161 169.584 134.695 171.368 130.356 170.164 C 129.05 169.802 127.285 168.182 126.435 166.564 C 124.162 162.24 119.56 163.312 118.901 168.32 C 118.229 173.433 116.178 175.106 110.583 175.106 C 105.714 175.106 102.988 172.033 102.988 166.544 C 102.988 163.971 102.437 163.788 94.718 163.788 C 87.219 163.788 86.194 164.099 83.719 167.129 C 78.255 173.819 65.309 177.381 53.295 175.5 Z M 69.13 163.706 C 77.425 158.986 72.076 149.074 61.233 149.074 C 56.257 149.074 49.778 153.875 49.778 157.563 C 49.778 161.251 56.257 166.052 61.233 166.052 C 63.308 166.052 66.862 164.996 69.13 163.706 Z M 48.213 125.306 C 45.175 123.109 45.083 121.533 45.083 71.76 C 45.083 29.257 45.463 20.102 47.305 18.281 C 49.105 16.501 51.434 16.084 59.584 16.084 C 76.101 16.084 74.818 11.409 74.818 71.618 L 74.818 124.046 L 71.34 125.808 C 66.103 128.46 52.157 128.158 48.213 125.306 Z M 133.692 126.399 C 128.327 125.237 122.312 121.382 119.272 117.156 C 117.931 115.293 117.073 110.646 117.073 105.25 L 117.073 96.399 L 102.206 85.692 C 90.795 77.473 87.338 74.278 87.338 71.946 C 87.338 69.624 90.846 66.345 102.206 58.05 L 117.073 47.192 L 117.079 37.863 C 117.087 24.775 122.445 18.965 136.643 16.649 C 146.478 15.045 147.148 16.472 146.547 37.736 L 146.026 56.208 L 135.237 64.068 L 124.448 71.929 L 134.451 79.411 C 139.952 83.527 144.934 87.769 145.521 88.839 C 147.252 91.995 146.97 122.973 145.188 125.38 C 143.455 127.722 140.864 127.952 133.692 126.399 Z"
            fill="#000000"
            stroke-width="12"/>
    </g>
</svg>
